X: 29849
T: O'Donnell's
R: hornpipe
M: 4/4
K: Gmajor
dg (3gfe dBed|BGDG ABAG|FGAB cdef|(3gba (3gfe d2Bc|
dg (3gfe dBed|BGDG ABAG|FGAB cdef|1 gfga g2Bc:|2 gfga g2ef||
|:gbag fagf|ef (3gfe fdBd|gbag fagf|ef (3gfe fdBd|
(3cdc Ac (3BdB GB|(3AcA EA GFEF|DEFG AB (3cBA|1 (3GBd (3gdB G2ef:|2 (3GBd (3gdB G2Bc||

